X:3047
T:Reynardine
C:anon.
O:England
F:http://abc.musicaviva.com/tunes/england/reynardine.abc
M:6/4
L:1/8
Q:1/4=108
K:Bmix
zF|"B"B2B2(Bc)(de) (f3g)|"E"g6 z f|"E"e2d2 c2(Be)|"E"e4 z2 (de)|
w:One morn-ing as_ I_ ramb--led -mong the spring-ing_ thyme, I_
"B"f3g d2cB|"A"A3B"B"B2(FG)|"F#m7"A2(A/B/c)"E"B3B|"B"B6z2|]
w:ov-er-heard a young wo--man con--verse with__ Reyn-ar-dine.
W:
W:
W:  From Musica Viva - http://www.musicaviva.com
W:  the Internet center for free sheet music downloads.

